src/assets/img/error-picture.svg

<svg width="185" height="185" viewBox="0 0 185 185" fill="none" xmlns="http://www.w3.org/2000/svg">
<g clip-path="url(#clip0_318_80)">
<path opacity="0.163388" fill-rule="evenodd" clip-rule="evenodd" d="M171.023 106.387H155.918C154.025 106.387 152.476 104.838 152.476 102.944V87.8344C152.476 85.9408 154.025 84.3916 155.918 84.3916H171.023C172.916 84.3916 174.464 85.9408 174.464 87.8344V102.944C174.464 104.838 172.916 106.387 171.023 106.387Z" fill="#597EF7"/>
<path fill-rule="evenodd" clip-rule="evenodd" d="M22.2688 93.3016H15.5681C14.7233 93.3016 14.0322 92.565 14.0322 91.6649V84.4385C14.0322 83.5383 14.7233 82.8018 15.5681 82.8018H22.2688C23.1136 82.8018 23.8048 83.5383 23.8048 84.4385V91.6649C23.8048 92.565 23.1136 93.3016 22.2688 93.3016Z" fill="#FFC540"/>
<path fill-rule="evenodd" clip-rule="evenodd" d="M171.114 134.899C170.269 134.899 169.578 134.213 169.578 133.375V126.647C169.578 125.809 170.269 125.124 171.114 125.124H177.815C178.659 125.124 179.351 125.809 179.351 126.647V133.375C179.351 134.213 178.659 134.899 177.815 134.899H171.114Z" fill="#FF7A46"/>
<path opacity="0.49707" fill-rule="evenodd" clip-rule="evenodd" d="M9.89372 61.6843C7.63186 61.6843 5.78125 59.8336 5.78125 57.5718V39.5226C5.78125 37.2608 7.63186 35.4102 9.89372 35.4102H27.9429C30.2047 35.4102 32.0553 37.2608 32.0553 39.5226V57.5718C32.0553 59.8336 30.2047 61.6843 27.9429 61.6843H9.89372Z" fill="#ADC6FF"/>
<path fill-rule="evenodd" clip-rule="evenodd" d="M134.685 14.7383C114.438 14.7383 98.0244 31.1518 98.0244 51.399C98.0244 71.6461 114.438 88.0596 134.685 88.0596C154.932 88.0596 171.346 71.6461 171.346 51.399C171.346 31.1518 154.932 14.7383 134.685 14.7383Z" fill="#0BB8E4"/>
<path fill-rule="evenodd" clip-rule="evenodd" d="M136.182 61.8732H134.873C133.788 61.8732 132.909 60.9939 132.909 59.9092V35.0323C132.909 33.9476 133.788 33.0684 134.873 33.0684H136.182C137.267 33.0684 138.146 33.9476 138.146 35.0323V59.9092C138.146 60.9939 137.267 61.8732 136.182 61.8732Z" fill="white"/>
<path fill-rule="evenodd" clip-rule="evenodd" d="M136.182 69.9243H134.873C133.788 69.9243 132.909 69.045 132.909 67.9603V66.651C132.909 65.5663 133.788 64.687 134.873 64.687H136.182C137.267 64.687 138.146 65.5663 138.146 66.651V67.9603C138.146 69.045 137.267 69.9243 136.182 69.9243Z" fill="white"/>
<path fill-rule="evenodd" clip-rule="evenodd" d="M133.089 103.584C133.089 135.348 107.34 161.097 75.5764 161.097C43.8129 161.097 18.0635 135.348 18.0635 103.584C18.0635 71.8207 43.8129 46.0713 75.5764 46.0713C107.34 46.0713 133.089 71.8207 133.089 103.584Z" fill="#A3B5D6"/>
<path fill-rule="evenodd" clip-rule="evenodd" d="M73.2266 95.3302C73.2266 102.005 67.8158 107.416 61.1412 107.416C54.4665 107.416 49.0557 102.005 49.0557 95.3302C49.0557 88.6556 54.4665 83.2446 61.1412 83.2446C67.8158 83.2446 73.2266 88.6556 73.2266 95.3302Z" fill="white"/>
<path fill-rule="evenodd" clip-rule="evenodd" d="M102.097 95.3302C102.097 102.005 96.6865 107.416 90.0117 107.416C83.3371 107.416 77.9263 102.005 77.9263 95.3302C77.9263 88.6556 83.3371 83.2446 90.0117 83.2446C96.6865 83.2446 102.097 88.6556 102.097 95.3302Z" fill="white"/>
<path fill-rule="evenodd" clip-rule="evenodd" d="M66.5121 94.9945C66.5121 97.7756 64.2575 100.03 61.4766 100.03C58.6954 100.03 56.4409 97.7756 56.4409 94.9945C56.4409 92.2135 58.6954 89.959 61.4766 89.959C64.2575 89.959 66.5121 92.2135 66.5121 94.9945Z" fill="#253368"/>
<path fill-rule="evenodd" clip-rule="evenodd" d="M94.7119 94.9945C94.7119 97.7756 92.4574 100.03 89.6763 100.03C86.8952 100.03 84.6406 97.7756 84.6406 94.9945C84.6406 92.2135 86.8952 89.959 89.6763 89.959C92.4574 89.959 94.7119 92.2135 94.7119 94.9945Z" fill="#253368"/>
<path fill-rule="evenodd" clip-rule="evenodd" d="M94.2587 129.573C93.5181 129.573 92.8056 129.163 92.4534 128.455C89.6116 122.741 82.9869 119.049 75.5763 119.049C68.1658 119.049 61.5411 122.741 58.6992 128.455C58.2038 129.451 56.9949 129.857 55.9986 129.362C55.0025 128.866 54.5967 127.657 55.092 126.661C58.6093 119.59 66.6497 115.02 75.5763 115.02C84.503 115.02 92.5434 119.59 96.0606 126.661C96.5558 127.657 96.1501 128.866 95.1541 129.362C94.866 129.505 94.56 129.573 94.2587 129.573Z" fill="#253368"/>
<g clip-path="url(#clip1_318_80)">
<path fill-rule="evenodd" clip-rule="evenodd" d="M139.647 117.109C134.558 125.923 137.578 137.193 146.392 142.281C155.205 147.37 166.475 144.35 171.564 135.536C176.653 126.723 173.633 115.452 164.819 110.364C156.005 105.275 144.735 108.295 139.647 117.109Z" fill="#A3B5D6"/>
<path fill-rule="evenodd" clip-rule="evenodd" d="M157.58 124.409C156.511 126.261 157.145 128.629 158.997 129.699C160.849 130.768 163.218 130.133 164.287 128.281C165.356 126.429 164.722 124.061 162.87 122.992C161.018 121.922 158.649 122.557 157.58 124.409Z" fill="white"/>
<path fill-rule="evenodd" clip-rule="evenodd" d="M149.569 119.783C148.5 121.636 149.134 124.004 150.986 125.073C152.838 126.142 155.206 125.508 156.276 123.656C157.345 121.804 156.711 119.435 154.858 118.366C153.006 117.297 150.638 117.931 149.569 119.783Z" fill="white"/>
<path fill-rule="evenodd" clip-rule="evenodd" d="M159.497 125.391C159.051 126.163 159.316 127.15 160.087 127.595C160.859 128.041 161.846 127.776 162.291 127.005C162.737 126.233 162.473 125.246 161.701 124.801C160.929 124.355 159.942 124.62 159.497 125.391Z" fill="#253368"/>
<path fill-rule="evenodd" clip-rule="evenodd" d="M151.672 120.874C151.227 121.645 151.491 122.632 152.263 123.078C153.034 123.523 154.021 123.259 154.467 122.487C154.912 121.715 154.648 120.729 153.876 120.283C153.104 119.838 152.118 120.102 151.672 120.874Z" fill="#253368"/>
<path fill-rule="evenodd" clip-rule="evenodd" d="M146.258 130.541C146.464 130.659 146.727 130.66 146.938 130.52C148.642 129.389 151.072 129.426 153.128 130.613C155.184 131.801 156.431 133.886 156.304 135.927C156.282 136.283 156.553 136.589 156.908 136.611C157.264 136.634 157.57 136.363 157.593 136.007C157.749 133.482 156.25 130.926 153.774 129.496C151.297 128.065 148.333 128.045 146.225 129.444C145.928 129.641 145.847 130.042 146.044 130.339C146.101 130.425 146.175 130.492 146.258 130.541Z" fill="#253368"/>
</g>
</g>
<defs>
<clipPath id="clip0_318_80">
<rect width="185" height="185" fill="white"/>
</clipPath>
<clipPath id="clip1_318_80">
<rect width="43.7039" height="43.7039" fill="white" transform="matrix(-0.866025 -0.5 -0.5 0.866025 185.443 118.327)"/>
</clipPath>
</defs>
</svg>

<svg xmlns="http://www.w3.org/2000/svg" width="185" height="185" fill="none" xmlns:v="https://vecta.io/nano"><g clip-path="url(#A)"><g fill-rule="evenodd"><path opacity=".163" d="M171.023 106.387h-15.105c-1.893 0-3.442-1.549-3.442-3.443v-15.11c0-1.894 1.549-3.443 3.442-3.443h15.105c1.893 0 3.441 1.549 3.441 3.443v15.11c0 1.894-1.548 3.443-3.441 3.443z" fill="#597ef7"/><path d="M22.269 93.302h-6.701c-.845 0-1.536-.737-1.536-1.637v-7.226c0-.9.691-1.637 1.536-1.637h6.701c.845 0 1.536.737 1.536 1.637v7.226c0 .9-.691 1.637-1.536 1.637z" fill="#ffc540"/><path d="M171.114 134.899c-.845 0-1.536-.686-1.536-1.524v-6.728c0-.838.691-1.523 1.536-1.523h6.701c.844 0 1.536.685 1.536 1.523v6.728c0 .838-.692 1.524-1.536 1.524h-6.701z" fill="#ff7a46"/><path opacity=".497" d="M9.894 61.684c-2.262 0-4.112-1.851-4.112-4.112V39.523c0-2.262 1.851-4.112 4.112-4.112h18.049c2.262 0 4.112 1.851 4.112 4.112v18.049c0 2.262-1.851 4.112-4.112 4.112H9.894z" fill="#adc6ff"/><path d="M134.685 14.738c-20.247 0-36.661 16.414-36.661 36.661s16.414 36.661 36.661 36.661 36.661-16.413 36.661-36.661-16.414-36.661-36.661-36.661z" fill="#0bb8e4"/><g fill="#fff"><path d="M136.182 61.873h-1.309c-1.085 0-1.964-.879-1.964-1.964V35.032c0-1.085.879-1.964 1.964-1.964h1.309c1.085 0 1.964.879 1.964 1.964v24.877c0 1.085-.879 1.964-1.964 1.964zm0 8.051h-1.309c-1.085 0-1.964-.879-1.964-1.964v-1.309c0-1.085.879-1.964 1.964-1.964h1.309c1.085 0 1.964.879 1.964 1.964v1.309c0 1.085-.879 1.964-1.964 1.964z"/></g><path d="M133.089 103.584c0 31.764-25.749 57.513-57.513 57.513s-57.513-25.749-57.513-57.513 25.749-57.513 57.513-57.513 57.513 25.749 57.513 57.513z" fill="#a3b5d6"/><g fill="#fff"><path d="M73.227 95.33a12.09 12.09 0 0 1-12.085 12.086A12.09 12.09 0 0 1 49.056 95.33a12.09 12.09 0 0 1 12.085-12.086A12.09 12.09 0 0 1 73.227 95.33zm28.87 0a12.09 12.09 0 0 1-12.085 12.086A12.09 12.09 0 0 1 77.926 95.33a12.09 12.09 0 0 1 12.085-12.086 12.09 12.09 0 0 1 12.085 12.086z"/></g><g fill="#253368"><path d="M66.512 94.995c0 2.781-2.255 5.035-5.036 5.035s-5.036-2.254-5.036-5.035 2.255-5.035 5.036-5.035 5.036 2.254 5.036 5.035zm28.2 0c0 2.781-2.254 5.035-5.036 5.035s-5.036-2.254-5.036-5.035 2.255-5.035 5.036-5.035 5.036 2.254 5.036 5.035zm-.453 34.578c-.741 0-1.453-.41-1.805-1.118-2.842-5.714-9.466-9.406-16.877-9.406s-14.035 3.692-16.877 9.406c-.495.996-1.704 1.402-2.701.907s-1.402-1.705-.907-2.701c3.517-7.071 11.558-11.641 20.484-11.641s16.967 4.57 20.484 11.641c.495.996.09 2.205-.906 2.701a2.01 2.01 0 0 1-.895.211z"/></g></g><g clip-path="url(#B)" fill-rule="evenodd"><path d="M139.647 117.109a18.43 18.43 0 0 0 31.917 18.427 18.43 18.43 0 0 0-31.917-18.427z" fill="#a3b5d6"/><g fill="#fff"><path d="M157.58 124.409c-1.069 1.852-.435 4.22 1.417 5.29s4.221.434 5.29-1.418.435-4.22-1.417-5.289-4.221-.435-5.29 1.417zm-8.011-4.626c-1.069 1.853-.435 4.221 1.417 5.29s4.22.435 5.29-1.417.435-4.221-1.418-5.29-4.22-.435-5.289 1.417z"/></g><g fill="#253368"><path d="M159.497 125.391c-.446.772-.181 1.759.59 2.204s1.759.181 2.204-.59.182-1.759-.59-2.204-1.759-.181-2.204.59zm-7.825-4.517c-.445.771-.181 1.758.591 2.204s1.758.181 2.204-.591.181-1.758-.591-2.204-1.758-.181-2.204.591zm-5.414 9.667c.206.118.469.119.68-.021 1.704-1.131 4.134-1.094 6.19.093s3.303 3.273 3.176 5.314c-.022.356.249.662.604.684s.662-.248.685-.604c.156-2.525-1.343-5.081-3.819-6.511s-5.441-1.451-7.549-.052c-.297.197-.378.598-.181.895.057.086.131.153.214.202z"/></g></g></g><defs><clipPath id="A"><path fill="#fff" d="M0 0h185v185H0z"/></clipPath><clipPath id="B"><path fill="#fff" transform="matrix(-.866025 -.5 -.5 .866025 185.443 118.327)" d="M0 0h43.704v43.704H0z"/></clipPath></defs></svg>
